!!!SOCIAL_FUNCTION:	songs of the dragging-feet dance
!!!PDT:	1922
!!!OTL: No_43_Dragging-Feet_Dance_(a).krn
!!!REG: Southwest
!!!LANG: Non-Tone
!!!LING_GROUP: Uto-Aztecan
**kern	**kern
*staff2	*staff1
=1-	=1-
=	=
*clefF4	*clefF4
*k[f#c#g#d#]	*k[f#c#g#d#]
*M3/4	*M3/4
4GG#/	8e\L
.	8e\J
4GG#/	8c#\L
.	8e\J
4GG#/	8.c#\L
.	16c#\Jk
=2	=2
4GG#/	2e\
4GG#/	.
4GG#/	4c#\
=3	=3
2.r	4B\
.	4B\
.	4G#\
=4||	=4||
*M2/4	*M2/4
2r	8B\L
.	8B\J
.	8G#\L
.	8B\J
=5	=5
2r	4B\
.	4B;\
=6||	=6||
*M3/4	*M3/4
2.r	8e\L
.	8e\J
.	8c#\L
.	8e\J
.	4c#\
=7||	=7||
*M2/4	*M2/4
2r	8G#\L
.	8G#\J
.	8.G#\L
.	16E\Jk
=8||	=8||
*M3/4	*M3/4
2.r	2.E\
=9||	=9||
*M2/4	*M2/4
2r	8E\L
.	8E\J
.	8C#/L
.	8E/J
=10	=10
2r	2E;\
=11||	=11||
*M3/4	*M3/4
2.r	8B\L
.	8B\J
.	8G#\L
.	8B\J
.	4G#\
=12||	=12||
*M2/4	*M2/4
2r	8E\L
.	8E\J
.	8.E/L
.	16BB/Jk
=13||	=13||
*M3/4	*M3/4
2.r	2.BB/
=14||	=14||
*M2/4	*M2/4
2r	8BB/L
.	8BB/J
.	8BB/L
.	8BB/J
=15	=15
2r	2BB/
==:|!	==:|!
*-	*-
